icons/city_worker_fill.svg

<svg width="48" height="48" viewBox="0 0 48 48" fill="none" xmlns="http://www.w3.org/2000/svg">
<path fill-rule="evenodd" clip-rule="evenodd" d="M34 16C34 21.5228 29.5228 26 24 26C18.4772 26 14 21.5228 14 16C14 10.4772 18.4772 6 24 6C29.5228 6 34 10.4772 34 16ZM32 16C32 20.4183 28.4183 24 24 24C19.5817 24 16 20.4183 16 16C16 11.5817 19.5817 8 24 8C28.4183 8 32 11.5817 32 16Z" fill="black"/>
<path d="M30.5 28C30.2884 27.9484 30.0619 28.0523 29.9591 28.2615L26 39.5716V36L25.4255 31.9786C25.7941 31.901 26.0952 31.6194 26.1894 31.2425L26.6894 29.2425C26.8472 28.6114 26.3698 28 25.7192 28H22.2808C21.6302 28 21.1528 28.6114 21.3106 29.2425L21.8106 31.2425C21.9048 31.6194 22.2059 31.901 22.5745 31.9786L22 36V38.6963L18.0409 28.2615C17.9381 28.0523 17.7116 27.9484 17.5 28C17.1413 28.0875 16.7551 28.1779 16.3521 28.2722C14.09 28.8015 11.2944 29.4557 9.808 30.4317C8.04534 31.5891 7 32.9535 7 34.5V41H41V34.5C41 32.9535 39.9547 31.5891 38.192 30.4317C36.7056 29.4557 33.9099 28.8015 31.6478 28.2721C31.2448 28.1778 30.8587 28.0875 30.5 28Z" fill="black"/>
</svg>

<svg
  xmlns="http://www.w3.org/2000/svg"
  width="24"
  height="24"
  viewBox="0 0 24 24"
  fill="none"
  stroke="currentColor"
  stroke-width="2"
  stroke-linecap="round"
  stroke-linejoin="round"
>
  <path
    fill-rule="evenodd"
    d="M34 16c0 5.523-4.477 10-10 10s-10-4.477-10-10S18.477 6 24 6s10 4.477 10 10m-2 0a8 8 0 1 1-16 0 8 8 0 0 1 16 0"
    clip-rule="evenodd"
  />
  <path d="M30.5 28a.48.48 0 0 0-.54.262L26 39.572V36l-.575-4.021a1 1 0 0 0 .764-.736l.5-2A1 1 0 0 0 25.72 28h-3.438a1 1 0 0 0-.97 1.242l.5 2a1 1 0 0 0 .764.737L22 36v2.696l-3.96-10.434A.48.48 0 0 0 17.5 28c-.359.087-.745.178-1.148.272-2.262.53-5.058 1.184-6.544 2.16C8.045 31.589 7 32.953 7 34.5V41h34v-6.5c0-1.547-1.045-2.91-2.808-4.068-1.486-.976-4.282-1.63-6.544-2.16-.403-.094-.79-.184-1.148-.272" />
</svg>
